X:232
T:The Rambling Pitchfork
R:jig
M:6/8
L:1/8
K:Dmaj
F2F AFF|dFF AFD|GFG ABc|ded cBA|
F2F AFF|dFF AFD|GFG BAG|AFD [1D2E:| [2DFA||
dcd fed|ecA ABc|dcd efg|aba gfe|
dcd fed|ecA AGF|GFG BAG|AFD [1DFA:|[2D2E|]

